src/assets/logos/mattereum.svg

<svg height="27" viewBox="0 0 326 27" width="326" xmlns="http://www.w3.org/2000/svg"><path d="m22.5 20 7.6-19.9h15v26h-5.8v-20.2h-5.2l-7.7 20.2h-7.8l-7.5-20.2h-5.3v20.2h-5.8v-26h15.2zm288.4-19.9h15v26h-5.8v-20.2h-5.2l-7.7 20.2h-7.8l-7.5-20.2h-5.3v20.2h-5.8v-26h15.2l7.3 19.9zm-252.1 0h13.3l8.7 26.1h-6.2l-2.1-6.3h-14.5l-2.2 6.3h-6.2zm1.3 13.9h10.5l-2.7-8.1h-4.9zm210.1 4v-17.9h5.8v20.3l-5.7 5.7h-22.9l-5.8-5.7v-20.3h5.9v17.9l2.3 2.3h18.1zm-132-8.1v-9.8h26.6v5.8h-20.8v4h20.8v5.9h-20.8v2.2l2.3 2.3h18.5v5.8h-20.9l-5.7-5.7v-4.6zm-19.5-9.8h5.8 9.3v5.8h-9.3v20.2h-5.8v-20.2h-8.7v-5.8zm-27.8 0h5.8 9.3v5.8h-9.3v20.2h-5.8v-20.2h-8.7v-5.8zm119 9.8v-9.8h26.4v5.8h-20.5v4h20.5v5.9h-20.5v2.2l2.3 2.3h18.2v5.8h-20.6l-5.8-5.7v-4.6zm-5.2.8-2.2 2.1 2.2 2.2v11.2h-5.8v-8.7l-1.7-1.7h-21.2v10.3h-5.8v-26.1h29.5l5 5zm-28.7-4.9v4h21.2l1.2-1.2.4-.4v-.8l-1.6-1.6z" fill-rule="evenodd"/></svg>

<svg xmlns="http://www.w3.org/2000/svg" width="326" height="27" viewBox="0 0 326 27">
  <path fill-rule="evenodd" d="M22.5,20 L30.1,0.1 L45.1,0.1 L45.1,26.1 L39.3,26.1 L39.3,5.9 L34.1,5.9 L26.4,26.1 L18.6,26.1 L11.1,5.9 L5.8,5.9 L5.8,26.1 L1.0658141e-14,26.1 L1.0658141e-14,0.1 L15.2,0.1 L22.5,20 Z M310.9,0.1 L325.9,0.1 L325.9,26.1 L320.1,26.1 L320.1,5.9 L314.9,5.9 L307.2,26.1 L299.4,26.1 L291.9,5.9 L286.6,5.9 L286.6,26.1 L280.8,26.1 L280.8,0.1 L296,0.1 L303.3,20 L310.9,0.1 Z M58.8,0.1 L72.1,0.1 L80.8,26.2 L74.6,26.2 L72.5,19.9 L58,19.9 L55.8,26.2 L49.6,26.2 L58.8,0.1 Z M60.1,14 L70.6,14 L67.9,5.9 L63,5.9 L60.1,14 Z M270.2,18 L270.2,0.1 L276,0.1 L276,20.4 L270.3,26.1 L247.4,26.1 L241.6,20.4 L241.6,0.1 L247.5,0.1 L247.5,18 L249.8,20.3 L267.9,20.3 L270.2,18 Z M138.2,9.9 L138.2,0.1 L164.8,0.1 L164.8,5.9 L144,5.9 L144,9.9 L164.8,9.9 L164.8,15.8 L144,15.8 L144,18 L146.3,20.3 L164.8,20.3 L164.8,26.1 L143.9,26.1 L138.2,20.4 L138.2,15.8 L138.2,9.9 Z M118.7,0.1 L124.5,0.1 L133.8,0.1 L133.8,5.9 L124.5,5.9 L124.5,26.1 L118.7,26.1 L118.7,5.9 L110,5.9 L110,0.1 L118.7,0.1 Z M90.9,0.1 L96.7,0.1 L106,0.1 L106,5.9 L96.7,5.9 L96.7,26.1 L90.9,26.1 L90.9,5.9 L82.2,5.9 L82.2,0.1 L90.9,0.1 Z M209.9,9.9 L209.9,0.1 L236.3,0.1 L236.3,5.9 L215.8,5.9 L215.8,9.9 L236.3,9.9 L236.3,15.8 L215.8,15.8 L215.8,18 L218.1,20.3 L236.3,20.3 L236.3,26.1 L215.7,26.1 L209.9,20.4 L209.9,15.8 L209.9,9.9 Z M204.7,10.7 L202.5,12.8 L204.7,15 L204.7,26.2 L198.9,26.2 L198.9,17.5 L197.2,15.8 L176,15.8 L176,26.1 L170.2,26.1 L170.2,2.30926389e-14 L199.7,2.30926389e-14 L204.7,5 L204.7,10.7 Z M176,5.8 L176,9.8 L197.2,9.8 L198.4,8.6 L198.8,8.2 L198.8,7.4 L197.2,5.8 L176,5.8 Z"/>
</svg>
